**kern
*staff1
!!pagebreak:original
*I"P1
*clefG2
*k[b-e-]
*M2/4
8f/L
8g/J
=1
4a/
8a/L
8b-/J
=2
4cc\
8cc\L
8cc\J
=3
4cc\
8dd\L
8cc\J
=4
4b-\
8b-\L
8b-\J
=5
4b-\
8cc\L
8b-\J
=6
4a/
8a/L
8b-/J
=7
8cc/L
8b-/
8a/
8g/J
=8
4f/
=
*-
